X: 134
T: No_218_Ball_Game_Song_(a).krn
N: Derived from No_218_Ball_Game_Song_(a).krn
%%abc-version 2.0
%%abcx-abcm2ps-target-version 5.9.1 (29 Sep 2008)
%%abc-creator hum2abc beta
%%abcx-conversion-date 2019/03/15 08:38:45
%%humdrum-veritas 827390117
%%humdrum-veritas-data 3619888177
%%linebreak <none>
%%barnumbers 0
L: 1/8
M: 2/4
K: F clef=bass
[K:clef=bass][M:2/4]F,/C3/ C/A,/G, [I:setbarnb 2]| 
B,/G,3/ F, z | 
F,/F,/D, F,D, | 
F,/F,/F, F,G, ||  
[M:3/8]A,G,G,3//F,// ||  
[M:2/4]G,2F,/ z/ G,3//A,// | 
G,2F, z | 
F,/F,/D, F,D, :|]  
C zB,2 |]  



